symbolic/32x32/apps/slic3r.svg

<svg xmlns="http://www.w3.org/2000/svg" width="32" height="32" version="1">
 <path style="opacity:0.2" d="M 21.703125,11.296875 6.2910156,26.708984 A 11,11 0 0 0 15,31 11,11 0 0 0 26,20 11,11 0 0 0 21.703125,11.296875 Z"/>
 <path style="fill:#909004" d="M 21.703125 10.296875 L 6.2910156 25.708984 A 11 11 0 0 0 15 30 A 11 11 0 0 0 26 19 A 11 11 0 0 0 21.703125 10.296875 z"/>
 <path style="opacity:0.2" d="M 17,3 A 11,11 0 0 0 6,14 11,11 0 0 0 10.296875,22.703125 L 25.708984,7.2910156 A 11,11 0 0 0 17,3 Z"/>
 <path style="fill:#c5c520" d="M 17 2 A 11 11 0 0 0 6 13 A 11 11 0 0 0 10.296875 21.703125 L 25.708984 6.2910156 A 11 11 0 0 0 17 2 z"/>
 <path style="opacity:0.2;fill:#ffffff" d="M 17 2 A 11 11 0 0 0 6 13 A 11 11 0 0 0 6.0214844 13.40625 A 11 11 0 0 1 17 3 A 11 11 0 0 1 25.248047 6.7519531 L 25.708984 6.2910156 A 11 11 0 0 0 17 2 z"/>
</svg>

<svg xmlns="http://www.w3.org/2000/svg" width="32" height="32" version="1"><path style="opacity:.2" d="M21.703 11.297 6.291 26.709A11 11 0 0 0 15 31a11 11 0 0 0 11-11 11 11 0 0 0-4.297-8.703z"/><path style="fill:#909004" d="M21.703 10.297 6.291 25.709A11 11 0 0 0 15 30a11 11 0 0 0 11-11 11 11 0 0 0-4.297-8.703z"/><path style="opacity:.2" d="M17 3A11 11 0 0 0 6 14a11 11 0 0 0 4.297 8.703L25.709 7.291A11 11 0 0 0 17 3z"/><path style="fill:#c5c520" d="M17 2A11 11 0 0 0 6 13a11 11 0 0 0 4.297 8.703L25.709 6.291A11 11 0 0 0 17 2z"/><path style="opacity:.2;fill:#fff" d="M17 2A11 11 0 0 0 6 13a11 11 0 0 0 .021.406A11 11 0 0 1 17 3a11 11 0 0 1 8.248 3.752l.461-.461A11 11 0 0 0 17 2z"/></svg>
